img/social/dribbble.svg

<svg width="35" height="35" viewBox="0 0 35 35" fill="none" xmlns="http://www.w3.org/2000/svg">
<path d="M17.5 0.0625C7.86719 0.0625 0.0625 7.9375 0.0625 17.5C0.0625 27.1328 7.86719 34.9375 17.5 34.9375C27.0625 34.9375 34.9375 27.1328 34.9375 17.5C34.9375 7.9375 27.0625 0.0625 17.5 0.0625ZM28.9609 8.14844C31.0703 10.6797 32.3359 13.9141 32.3359 17.4297C31.8438 17.2891 26.9219 16.3047 22 16.9375C21.5781 15.9531 21.2266 15.1094 20.6641 13.9844C26.2188 11.7344 28.6797 8.57031 28.9609 8.14844ZM27.3438 6.39062C27.0625 6.8125 24.8125 9.83594 19.5391 11.8047C17.0781 7.30469 14.4062 3.64844 13.9844 3.08594C18.6953 1.96094 23.6875 3.15625 27.3438 6.39062ZM11.1016 4.07031C11.5234 4.63281 14.1953 8.28906 16.6562 12.7188C9.69531 14.5469 3.57812 14.5469 2.875 14.4766C3.85938 9.90625 6.95312 6.03906 11.1016 4.07031ZM2.59375 17.5703C2.59375 17.4297 2.59375 17.2891 2.59375 17.0781C3.22656 17.1484 10.4688 17.2188 17.8516 14.9688C18.3438 15.8125 18.6953 16.6562 19.1172 17.5C13.7031 19.0469 8.78125 23.4062 6.39062 27.4844C4 24.8828 2.59375 21.3672 2.59375 17.5703ZM8.28906 29.3125C9.90625 26.1484 14.125 22 20.1016 19.9609C22.2109 25.375 23.0547 29.9453 23.2656 31.2812C18.4844 33.3203 12.7188 32.7578 8.28906 29.3125ZM25.7969 29.875C25.6562 29.0312 24.8125 24.6719 22.9141 19.2578C27.5547 18.5547 31.6328 19.75 32.1953 19.8906C31.4922 24.0391 29.1016 27.625 25.7969 29.875Z" fill="#1565D8"/>
</svg>

<svg width="35" height="35" fill="none" xmlns="http://www.w3.org/2000/svg"><path d="M17.5.063C7.867.063.062 7.938.062 17.5c0 9.633 7.805 17.438 17.438 17.438 9.563 0 17.438-7.805 17.438-17.438C34.938 7.937 27.061.062 17.5.062zm11.46 8.085a14.452 14.452 0 0 1 3.376 9.282c-.492-.14-5.414-1.125-10.336-.492-.422-.985-.773-1.829-1.336-2.954 5.555-2.25 8.016-5.414 8.297-5.836zm-1.616-1.757c-.282.421-2.532 3.445-7.805 5.414-2.46-4.5-5.133-8.157-5.555-8.72 4.711-1.124 9.704.071 13.36 3.306zM11.102 4.07c.421.562 3.093 4.218 5.554 8.648-6.96 1.828-13.078 1.828-13.781 1.758.984-4.57 4.078-8.438 8.227-10.407zm-8.508 13.5v-.493c.633.07 7.875.14 15.258-2.11.492.845.843 1.688 1.265 2.532-5.414 1.547-10.336 5.906-12.726 9.984C4 24.883 2.594 21.367 2.594 17.57zm5.695 11.741c1.617-3.164 5.836-7.312 11.813-9.351 2.109 5.414 2.953 9.984 3.164 11.32a14.895 14.895 0 0 1-14.977-1.968zm17.508.563c-.14-.844-.985-5.203-2.883-10.617 4.64-.703 8.719.492 9.281.633a15.182 15.182 0 0 1-6.398 9.984z" fill="#1565D8"/></svg>
